!!!OTL: 155. Freylekhs
!!!Genre:	Freylekhs
!!!Mode:	Major (Mixolydian)
!!!Listening/dance:	dance
!!!:	*g:dor
!!!One_Mode:	no
**kern
*thru
*I"P1
*clefG2
*k[]
*g:dor
=11||
*>C
*k[b-]
!LO:TX:a:i:t=G-raised-fourth
8qcc#X/
2dd
=12
8qcc#X/
2dd
=13
16cc#XLL
16dd
16ee
16ddJJ
(8.cc#tL
16b-Jk)
=14
16cc#XLL
16dd
16ee
16ddJJ
(8.cc#tL
16b-Jk)
=15
16cc#XLL
16dd
16ee
16ddJJ
(8.cc#tL
16b-Jk)
=16
16ddLL
16cc#X
16b-
16aJJ
4g
=17
2dd
=18
2gg
=19
4gg
4gg
=20
4gg
4gg
=21
16cc#XLL
16dd
16ee
16ddJJ
(8.cc#tL
16b-Jk)
=22
16cc#XLL
16dd
16ee
16ddJJ
(8.cc#tL
16b-Jk)
=23
16cc#XLL
16dd
16ee
16ddJJ
(8.cc#tL
16b-Jk)
=24
16ddLL
16cc#X
16b-
16aJJ
4g
!!!End-Modulation
*-
